icons/job/ranged/MCH.svg

<svg viewBox="0 0 12.7 12.7" xmlns="http://www.w3.org/2000/svg">
  <g>
    <path d="M 7.3246486,11.185647 C 7.1492464,10.916989 6.9249042,10.523142 6.7904003,10.283313 6.3695153,9.5328465 6.1055513,8.9364082 6.6492599,8.6485058 6.9779895,8.4744392 7.2286323,8.9379817 7.4963591,9.4237929 7.8186221,10.008564 8.1265983,10.369222 8.3736436,10.181535 8.7221805,9.9167414 8.9165902,9.723559 8.5910916,9.3429005 8.3271742,9.0342596 7.0758772,7.9371442 7.6939168,7.3437307 7.9770187,7.0719092 8.2728427,6.8614414 8.6160757,6.7161581 9.0529112,6.5312553 8.763775,6.4074928 8.4970275,6.2172544 L 7.0197602,5.1637 5.0373306,3.7498737 2.5496612,1.9814771 C 2.2241792,1.7501034 1.8853167,1.5080941 2.2801349,0.96631316 2.5989173,0.52887144 2.7945734,0.54219492 3.7229751,1.2043107 5.2706731,2.3080964 7.3418747,3.7934449 8.5933654,4.6859812 10.945373,6.3633818 11.397408,6.6367579 9.0356961,7.4709809 8.4715107,7.6702679 8.4046231,7.8239264 8.5796625,7.9802301 8.7833714,8.1716042 9.4112068,8.7364345 9.6724283,9.1344187 9.9999597,9.63343 9.9242693,9.9351839 9.6619642,10.358857 9.429228,10.73477 8.8237828,11.536685 8.416569,11.908614 8.117281,12.181968 7.8752394,12.028957 7.3246596,11.185647 Z M 4.8887208,8.253524 C 4.8363295,8.1529673 4.798248,7.663599 4.798248,7.1472155 4.798248,6.5923806 4.813865,6.2992248 5.1448273,6.4369478 5.312662,6.5067976 5.6446248,6.641492 5.6427296,6.9902083 5.638936,7.6834254 5.7918721,7.7702318 6.2812515,7.270503 6.6160224,6.9286523 6.3898625,6.7905602 3.9621281,5.0591505 3.3613756,4.6307083 2.9864043,4.3929368 2.7172383,4.1605373 2.37683,3.8666291 2.4213488,3.6702048 2.5454827,3.2588813 2.678591,2.8178214 3.1196176,3.1800295 3.965638,3.7833973 L 6.9608921,5.9195479 C 7.6254769,6.3935149 7.2148529,7.4978373 6.7991801,7.9734269 6.329273,8.4349936 6.1230462,8.5339665 5.772139,8.5818118 5.367629,8.6369692 5.0762191,8.6885386 4.8887248,8.253524 Z" />
  </g>
</svg>

<svg viewBox="0 0 12.7 12.7" xmlns="http://www.w3.org/2000/svg"><path d="M7.325 11.186a17.86 17.86 0 0 1-.535-.903c-.42-.75-.684-1.347-.14-1.634.328-.175.579.289.846.775.323.585.63.945.878.758.348-.265.543-.458.217-.84-.264-.308-1.515-1.405-.897-1.998.283-.272.579-.483.922-.628.437-.185.148-.309-.119-.499L7.02 5.164 5.037 3.75 2.55 1.98c-.326-.23-.665-.473-.27-1.015.319-.437.515-.424 1.443.238 1.548 1.104 3.619 2.59 4.87 3.482 2.352 1.677 2.804 1.95.443 2.785-.564.2-.631.353-.456.51.203.19.831.755 1.092 1.153.328.5.252.801-.01 1.225-.233.376-.838 1.178-1.245 1.55-.3.273-.542.12-1.092-.723ZM4.889 8.254c-.053-.101-.09-.59-.09-1.107 0-.555.015-.848.346-.71.168.07.5.204.498.553-.004.693.149.78.638.28.335-.341.109-.48-2.319-2.21-.6-.43-.976-.667-1.245-.9-.34-.293-.296-.49-.172-.901.134-.441.575-.079 1.42.524L6.962 5.92c.664.474.254 1.578-.162 2.053-.47.462-.676.561-1.027.609-.404.055-.696.107-.883-.328Z"/></svg>
